images/svg/jquery-logo.svg

<svg xmlns="http://www.w3.org/2000/svg"  viewBox="0 0 50 50" width="50px" height="50px"><path d="M 29.867188 3.007813 C 29.761719 3.023438 29.65625 3.054688 29.554688 3.101563 C 28.695313 3.527344 27.71875 4.792969 27.53125 5.042969 C 27.519531 5.058594 27.507813 5.074219 27.5 5.089844 C 26.535156 6.535156 26.019531 8.226563 26 9.988281 C 25.988281 11.308594 26.246094 12.617188 26.769531 13.878906 C 27.988281 16.804688 30.519531 19.226563 33.53125 20.359375 C 33.632813 20.394531 33.730469 20.429688 33.90625 20.492188 C 33.921875 20.5 34.070313 20.546875 34.09375 20.550781 L 34.203125 20.589844 C 34.359375 20.640625 34.519531 20.691406 34.675781 20.722656 C 35.46875 20.882813 36.242188 20.972656 36.96875 20.996094 C 37.09375 20.996094 37.21875 21 37.34375 21 C 42.824219 21 44.949219 17.132813 45.65625 15.84375 C 45.726563 15.71875 45.777344 15.617188 45.824219 15.554688 C 45.824219 15.550781 45.824219 15.550781 45.828125 15.546875 C 46.136719 15.089844 46.019531 14.46875 45.5625 14.15625 C 45.109375 13.847656 44.488281 13.964844 44.175781 14.421875 C 44.175781 14.421875 44.171875 14.421875 44.171875 14.421875 C 42.710938 16.574219 40.210938 17.226563 36.746094 16.367188 C 36.488281 16.304688 36.207031 16.207031 35.957031 16.113281 C 35.628906 15.996094 35.300781 15.859375 34.996094 15.710938 C 34.390625 15.410156 33.820313 15.050781 33.304688 14.652344 C 30.257813 12.289063 29.066406 7.371094 30.847656 4.53125 C 31.085938 4.152344 31.042969 3.660156 30.742188 3.328125 C 30.515625 3.078125 30.1875 2.964844 29.867188 3.007813 Z M 21.007813 5 C 20.78125 4.996094 20.550781 5.070313 20.363281 5.226563 C 18.851563 6.457031 17.304688 8.472656 17.238281 8.554688 C 17.230469 8.570313 17.222656 8.582031 17.210938 8.597656 C 14.476563 12.578125 14.269531 18.242188 16.6875 23.027344 C 17.066406 23.785156 17.496094 24.507813 17.953125 25.171875 L 18.089844 25.367188 C 18.476563 25.933594 18.910156 26.574219 19.464844 27.074219 C 19.65625 27.292969 19.863281 27.503906 20.066406 27.707031 L 20.164063 27.808594 L 20.246094 27.890625 C 20.453125 28.089844 20.664063 28.292969 20.882813 28.488281 C 20.882813 28.488281 20.886719 28.488281 20.886719 28.488281 C 20.902344 28.511719 20.925781 28.527344 20.945313 28.546875 C 21.191406 28.765625 21.441406 28.972656 21.773438 29.234375 L 21.863281 29.300781 C 22.121094 29.507813 22.382813 29.703125 22.652344 29.894531 C 22.679688 29.914063 22.707031 29.933594 22.734375 29.953125 C 22.828125 30.015625 22.921875 30.074219 23.015625 30.140625 L 23.109375 30.203125 L 23.21875 30.273438 C 23.417969 30.40625 23.613281 30.527344 23.890625 30.6875 C 24.070313 30.796875 24.261719 30.90625 24.386719 30.96875 C 24.441406 31 24.5 31.03125 24.636719 31.105469 L 24.941406 31.265625 C 24.957031 31.273438 25.027344 31.304688 25.042969 31.3125 C 25.242188 31.414063 25.449219 31.511719 25.65625 31.605469 L 25.972656 31.746094 C 26.179688 31.835938 26.390625 31.921875 26.648438 32.019531 L 26.765625 32.0625 C 26.773438 32.070313 26.871094 32.105469 26.878906 32.109375 C 27.066406 32.175781 27.257813 32.242188 27.449219 32.304688 L 27.886719 32.449219 C 28.105469 32.523438 28.359375 32.609375 28.636719 32.65625 C 30 32.882813 31.324219 33 32.578125 33 C 32.726563 33 32.875 32.996094 33.019531 32.996094 C 44.058594 32.753906 46.929688 23.375 46.957031 23.28125 C 47.09375 22.808594 46.871094 22.304688 46.425781 22.09375 C 45.980469 21.882813 45.449219 22.03125 45.171875 22.4375 C 42.375 26.523438 37.085938 28.25 31.699219 26.828125 C 31.449219 26.765625 31.207031 26.695313 30.90625 26.597656 C 30.855469 26.582031 30.8125 26.566406 30.730469 26.535156 C 30.554688 26.480469 30.382813 26.421875 30.1875 26.347656 L 29.910156 26.242188 C 29.75 26.179688 29.589844 26.117188 29.394531 26.03125 L 29.265625 25.972656 C 29.027344 25.871094 28.796875 25.757813 28.589844 25.65625 L 28.019531 25.359375 C 27.890625 25.296875 27.777344 25.226563 27.601563 25.121094 L 27.503906 25.066406 L 27.40625 25.007813 C 27.261719 24.921875 27.117188 24.832031 26.984375 24.738281 L 26.890625 24.679688 C 26.882813 24.675781 26.804688 24.621094 26.796875 24.613281 C 26.679688 24.539063 26.566406 24.464844 26.457031 24.394531 C 26.214844 24.222656 25.976563 24.042969 25.699219 23.824219 L 25.589844 23.734375 C 23.011719 21.675781 21.105469 18.925781 20.210938 15.976563 C 19.378906 13.269531 19.996094 9.726563 21.863281 6.5 C 22.105469 6.082031 22.015625 5.550781 21.644531 5.238281 C 21.460938 5.082031 21.234375 5 21.007813 5 Z M 10.003906 8 C 9.765625 8 9.523438 8.085938 9.332031 8.257813 C 7.421875 9.972656 5.992188 12.195313 5.835938 12.449219 C 1.75 18.398438 2.539063 27.644531 5.34375 33.296875 C 5.398438 33.414063 5.457031 33.527344 5.515625 33.640625 L 5.554688 33.703125 C 5.605469 33.816406 5.664063 33.933594 5.683594 33.957031 C 5.714844 34.03125 5.761719 34.113281 5.78125 34.136719 C 5.828125 34.234375 5.875 34.320313 5.960938 34.46875 L 6.28125 35.019531 C 6.328125 35.09375 6.375 35.171875 6.390625 35.199219 C 6.453125 35.300781 6.519531 35.40625 6.585938 35.511719 L 6.742188 35.761719 C 6.789063 35.835938 6.835938 35.902344 6.867188 35.941406 C 7.023438 36.183594 7.179688 36.425781 7.351563 36.65625 C 7.359375 36.667969 7.367188 36.675781 7.375 36.683594 L 7.4375 36.769531 C 7.578125 36.972656 7.722656 37.167969 7.851563 37.328125 L 8.421875 38.050781 C 8.429688 38.058594 8.492188 38.132813 8.496094 38.140625 L 8.578125 38.234375 C 8.75 38.445313 8.933594 38.65625 9.117188 38.859375 C 9.144531 38.890625 9.171875 38.917969 9.199219 38.949219 C 9.375 39.140625 9.554688 39.332031 9.742188 39.53125 L 9.921875 39.703125 C 10.070313 39.859375 10.21875 40.011719 10.375 40.15625 C 10.375 40.160156 10.449219 40.230469 10.449219 40.230469 L 10.605469 40.375 C 10.792969 40.554688 10.988281 40.734375 11.136719 40.859375 C 11.144531 40.871094 11.285156 40.992188 11.296875 41 C 11.480469 41.164063 11.664063 41.320313 11.851563 41.472656 L 12.808594 42.230469 C 12.96875 42.347656 13.132813 42.464844 13.320313 42.601563 C 13.382813 42.648438 13.449219 42.695313 13.515625 42.738281 C 13.542969 42.761719 13.574219 42.785156 13.59375 42.796875 L 14.3125 43.277344 C 14.574219 43.449219 14.835938 43.609375 15.15625 43.800781 L 15.328125 43.898438 C 15.527344 44.015625 15.730469 44.132813 15.921875 44.234375 C 16.035156 44.296875 16.148438 44.351563 16.246094 44.402344 C 16.382813 44.476563 16.53125 44.558594 16.757813 44.667969 C 16.777344 44.679688 16.9375 44.757813 16.957031 44.765625 C 17.183594 44.878906 17.414063 44.984375 17.703125 45.113281 C 17.703125 45.117188 17.796875 45.160156 17.796875 45.160156 C 18.0625 45.273438 18.320313 45.382813 18.660156 45.519531 C 18.714844 45.542969 18.769531 45.5625 18.78125 45.566406 C 19.023438 45.660156 19.277344 45.753906 19.484375 45.828125 C 19.503906 45.835938 19.609375 45.878906 19.628906 45.886719 C 19.90625 45.980469 20.179688 46.070313 20.53125 46.179688 C 20.589844 46.199219 20.652344 46.21875 20.660156 46.21875 L 20.859375 46.28125 C 21.101563 46.355469 21.34375 46.433594 21.605469 46.484375 C 23.464844 46.824219 25.28125 47 27 47 L 27.003906 47 C 41.328125 47 45.890625 35.472656 45.9375 35.355469 C 46.113281 34.890625 45.921875 34.367188 45.484375 34.125 C 45.054688 33.886719 44.507813 34 44.203125 34.394531 C 40.527344 39.234375 33.59375 41.03125 25.65625 39.207031 C 25.464844 39.160156 25.269531 39.105469 25.078125 39.046875 L 24.703125 38.933594 C 24.449219 38.855469 24.195313 38.769531 23.949219 38.683594 C 23.945313 38.683594 23.832031 38.640625 23.832031 38.640625 C 23.613281 38.566406 23.394531 38.480469 23.203125 38.40625 L 22.984375 38.320313 C 22.742188 38.222656 22.5 38.121094 22.265625 38.015625 L 22.128906 37.957031 C 21.917969 37.859375 21.714844 37.765625 21.511719 37.664063 C 21.496094 37.65625 21.335938 37.578125 21.320313 37.574219 C 21.179688 37.503906 21.039063 37.429688 20.859375 37.332031 L 20.042969 36.894531 C 19.960938 36.839844 19.875 36.789063 19.792969 36.746094 C 19.546875 36.59375 19.292969 36.441406 19.042969 36.28125 C 18.984375 36.246094 18.933594 36.207031 18.835938 36.140625 C 18.664063 36.03125 18.496094 35.917969 18.25 35.746094 L 18.152344 35.675781 C 17.984375 35.558594 17.820313 35.433594 17.683594 35.332031 C 17.597656 35.269531 17.511719 35.199219 17.371094 35.09375 C 17.246094 34.996094 17.121094 34.902344 17.003906 34.808594 L 16.785156 34.628906 C 16.601563 34.480469 16.429688 34.324219 16.25 34.171875 C 16.226563 34.148438 16.207031 34.132813 16.179688 34.113281 C 15.980469 33.929688 15.777344 33.746094 15.535156 33.515625 L 14.828125 32.8125 C 14.65625 32.636719 14.484375 32.457031 14.289063 32.242188 C 14.109375 32.042969 13.9375 31.84375 13.707031 31.570313 L 13.285156 31.054688 C 13.234375 30.980469 13.179688 30.90625 13.113281 30.828125 C 12.96875 30.632813 12.824219 30.441406 12.679688 30.238281 C 8.789063 24.878906 7.773438 13.691406 10.804688 9.59375 C 11.109375 9.183594 11.054688 8.605469 10.671875 8.257813 C 10.484375 8.085938 10.242188 8 10.003906 8 Z"/></svg>

<svg xmlns="http://www.w3.org/2000/svg" xmlns:xlink="http://www.w3.org/1999/xlink" viewBox="0,0,256,256" width="50px" height="50px"><g fill="#0768aa" fill-rule="nonzero" stroke="none" stroke-width="1" stroke-linecap="butt" stroke-linejoin="miter" stroke-miterlimit="10" stroke-dasharray="" stroke-dashoffset="0" font-family="none" font-weight="none" font-size="none" text-anchor="none" style="mix-blend-mode: normal"><g transform="scale(5.12,5.12)"><path d="M29.86719,3.00781c-0.10547,0.01563 -0.21094,0.04688 -0.3125,0.09375c-0.85937,0.42578 -1.83594,1.69141 -2.02344,1.94141c-0.01172,0.01563 -0.02344,0.03125 -0.03125,0.04688c-0.96484,1.44531 -1.48047,3.13672 -1.5,4.89844c-0.01172,1.32031 0.24609,2.62891 0.76953,3.89063c1.21875,2.92578 3.75,5.34766 6.76172,6.48047c0.10156,0.03516 0.19922,0.07031 0.375,0.13281c0.01563,0.00781 0.16406,0.05469 0.1875,0.05859l0.10938,0.03906c0.15625,0.05078 0.31641,0.10156 0.47266,0.13281c0.79297,0.16016 1.56641,0.25 2.29297,0.27344c0.125,0 0.25,0.00391 0.375,0.00391c5.48047,0 7.60547,-3.86719 8.3125,-5.15625c0.07031,-0.125 0.12109,-0.22656 0.16797,-0.28906c0,-0.00391 0,-0.00391 0.00391,-0.00781c0.30859,-0.45703 0.19141,-1.07812 -0.26562,-1.39062c-0.45312,-0.30859 -1.07422,-0.19141 -1.38672,0.26563h-0.00391c-1.46094,2.15234 -3.96094,2.80469 -7.42578,1.94531c-0.25781,-0.0625 -0.53906,-0.16016 -0.78906,-0.25391c-0.32812,-0.11719 -0.65625,-0.25391 -0.96094,-0.40234c-0.60547,-0.30078 -1.17578,-0.66016 -1.69141,-1.05859c-3.04687,-2.36328 -4.23828,-7.28125 -2.45703,-10.12109c0.23828,-0.37891 0.19531,-0.87109 -0.10547,-1.20312c-0.22656,-0.25 -0.55469,-0.36328 -0.875,-0.32031zM21.00781,5c-0.22656,-0.00391 -0.45703,0.07031 -0.64453,0.22656c-1.51172,1.23047 -3.05859,3.24609 -3.125,3.32813c-0.00781,0.01563 -0.01562,0.02734 -0.02734,0.04297c-2.73437,3.98047 -2.94141,9.64453 -0.52344,14.42969c0.37891,0.75781 0.80859,1.48047 1.26563,2.14453l0.13672,0.19531c0.38672,0.56641 0.82031,1.20703 1.375,1.70703c0.19141,0.21875 0.39844,0.42969 0.60156,0.63281l0.09766,0.10156l0.08203,0.08203c0.20703,0.19922 0.41797,0.40234 0.63672,0.59766h0.00391c0.01563,0.02344 0.03906,0.03906 0.05859,0.05859c0.24609,0.21875 0.49609,0.42578 0.82813,0.6875l0.08984,0.06641c0.25781,0.20703 0.51953,0.40234 0.78906,0.59375c0.02734,0.01953 0.05469,0.03906 0.08203,0.05859c0.09375,0.0625 0.1875,0.12109 0.28125,0.1875l0.09375,0.0625l0.10938,0.07031c0.19922,0.13281 0.39453,0.25391 0.67188,0.41406c0.17969,0.10938 0.37109,0.21875 0.49609,0.28125c0.05469,0.03125 0.11328,0.0625 0.25,0.13672l0.30469,0.16016c0.01563,0.00781 0.08594,0.03906 0.10156,0.04688c0.19922,0.10156 0.40625,0.19922 0.61328,0.29297l0.31641,0.14063c0.20703,0.08984 0.41797,0.17578 0.67578,0.27344l0.11719,0.04297c0.00781,0.00781 0.10547,0.04297 0.11328,0.04688c0.1875,0.06641 0.37891,0.13281 0.57031,0.19531l0.4375,0.14453c0.21875,0.07422 0.47266,0.16016 0.75,0.20703c1.36328,0.22656 2.6875,0.34375 3.94141,0.34375c0.14844,0 0.29688,-0.00391 0.44141,-0.00391c11.03906,-0.24219 13.91016,-9.62109 13.9375,-9.71484c0.13672,-0.47266 -0.08594,-0.97656 -0.53125,-1.1875c-0.44531,-0.21094 -0.97656,-0.0625 -1.25391,0.34375c-2.79687,4.08594 -8.08594,5.8125 -13.47266,4.39063c-0.25,-0.0625 -0.49219,-0.13281 -0.79297,-0.23047c-0.05078,-0.01562 -0.09375,-0.03125 -0.17578,-0.0625c-0.17578,-0.05469 -0.34766,-0.11328 -0.54297,-0.1875l-0.27734,-0.10547c-0.16016,-0.0625 -0.32031,-0.125 -0.51562,-0.21094l-0.12891,-0.05859c-0.23828,-0.10156 -0.46875,-0.21484 -0.67578,-0.31641l-0.57031,-0.29687c-0.12891,-0.0625 -0.24219,-0.13281 -0.41797,-0.23828l-0.09766,-0.05469l-0.09766,-0.05859c-0.14453,-0.08594 -0.28906,-0.17578 -0.42187,-0.26953l-0.09375,-0.05859c-0.00781,-0.00391 -0.08594,-0.05859 -0.09375,-0.06641c-0.11719,-0.07422 -0.23047,-0.14844 -0.33984,-0.21875c-0.24219,-0.17187 -0.48047,-0.35156 -0.75781,-0.57031l-0.10937,-0.08984c-2.57812,-2.05859 -4.48437,-4.80859 -5.37891,-7.75781c-0.83203,-2.70703 -0.21484,-6.25 1.65234,-9.47656c0.24219,-0.41797 0.15234,-0.94922 -0.21875,-1.26172c-0.18359,-0.15625 -0.41016,-0.23828 -0.63672,-0.23828zM10.00391,8c-0.23828,0 -0.48047,0.08594 -0.67187,0.25781c-1.91016,1.71484 -3.33984,3.9375 -3.49609,4.19141c-4.08594,5.94922 -3.29687,15.19531 -0.49219,20.84766c0.05469,0.11719 0.11328,0.23047 0.17188,0.34375l0.03906,0.0625c0.05078,0.11328 0.10938,0.23047 0.12891,0.25391c0.03125,0.07422 0.07813,0.15625 0.09766,0.17969c0.04688,0.09766 0.09375,0.18359 0.17969,0.33203l0.32031,0.55078c0.04688,0.07422 0.09375,0.15234 0.10938,0.17969c0.0625,0.10156 0.12891,0.20703 0.19531,0.3125l0.15625,0.25c0.04688,0.07422 0.09375,0.14063 0.125,0.17969c0.15625,0.24219 0.3125,0.48438 0.48438,0.71484c0.00781,0.01172 0.01563,0.01953 0.02344,0.02734l0.0625,0.08594c0.14063,0.20313 0.28516,0.39844 0.41406,0.55859l0.57031,0.72266c0.00781,0.00781 0.07031,0.08203 0.07422,0.08984l0.08203,0.09375c0.17188,0.21094 0.35547,0.42188 0.53906,0.625c0.02734,0.03125 0.05469,0.05859 0.08203,0.08984c0.17578,0.19141 0.35547,0.38281 0.54297,0.58203l0.17969,0.17188c0.14844,0.15625 0.29688,0.30859 0.45313,0.45313c0,0.00391 0.07422,0.07422 0.07422,0.07422l0.15625,0.14453c0.1875,0.17969 0.38281,0.35938 0.53125,0.48438c0.00781,0.01172 0.14844,0.13281 0.16016,0.14063c0.18359,0.16406 0.36719,0.32031 0.55469,0.47266l0.95703,0.75781c0.16016,0.11719 0.32422,0.23438 0.51172,0.37109c0.0625,0.04688 0.12891,0.09375 0.19531,0.13672c0.02734,0.02344 0.05859,0.04688 0.07813,0.05859l0.71875,0.48047c0.26172,0.17188 0.52344,0.33203 0.84375,0.52344l0.17188,0.09766c0.19922,0.11719 0.40234,0.23438 0.59375,0.33594c0.11328,0.0625 0.22656,0.11719 0.32422,0.16797c0.13672,0.07422 0.28516,0.15625 0.51172,0.26563c0.01953,0.01172 0.17969,0.08984 0.19922,0.09766c0.22656,0.11328 0.45703,0.21875 0.74609,0.34766c0,0.00391 0.09375,0.04688 0.09375,0.04688c0.26563,0.11328 0.52344,0.22266 0.86328,0.35938c0.05469,0.02344 0.10938,0.04297 0.12109,0.04688c0.24219,0.09375 0.49609,0.1875 0.70313,0.26172c0.01953,0.00781 0.125,0.05078 0.14453,0.05859c0.27734,0.09375 0.55078,0.18359 0.90234,0.29297c0.05859,0.01953 0.12109,0.03906 0.12891,0.03906l0.19922,0.0625c0.24219,0.07422 0.48438,0.15234 0.74609,0.20313c1.85938,0.33984 3.67578,0.51563 5.39453,0.51563h0.00391c14.32422,0 18.88672,-11.52734 18.93359,-11.64453c0.17578,-0.46484 -0.01562,-0.98828 -0.45312,-1.23047c-0.42969,-0.23828 -0.97656,-0.125 -1.28125,0.26953c-3.67578,4.83984 -10.60937,6.63672 -18.54687,4.8125c-0.19141,-0.04687 -0.38672,-0.10156 -0.57812,-0.16016l-0.375,-0.11328c-0.25391,-0.07812 -0.50781,-0.16406 -0.75391,-0.25c-0.00391,0 -0.11719,-0.04297 -0.11719,-0.04297c-0.21875,-0.07422 -0.4375,-0.16016 -0.62891,-0.23437l-0.21875,-0.08594c-0.24219,-0.09766 -0.48437,-0.19922 -0.71875,-0.30469l-0.13672,-0.05859c-0.21094,-0.09766 -0.41406,-0.19141 -0.61719,-0.29297c-0.01562,-0.00781 -0.17578,-0.08594 -0.19141,-0.08984c-0.14062,-0.07031 -0.28125,-0.14453 -0.46094,-0.24219l-0.81641,-0.4375c-0.08203,-0.05469 -0.16797,-0.10547 -0.25,-0.14844c-0.24609,-0.15234 -0.5,-0.30469 -0.75,-0.46484c-0.05859,-0.03516 -0.10937,-0.07422 -0.20703,-0.14062c-0.17187,-0.10937 -0.33984,-0.22266 -0.58594,-0.39453l-0.09766,-0.07031c-0.16797,-0.11719 -0.33203,-0.24219 -0.46875,-0.34375c-0.08594,-0.0625 -0.17187,-0.13281 -0.3125,-0.23828c-0.125,-0.09766 -0.25,-0.19141 -0.36719,-0.28516l-0.21875,-0.17969c-0.18359,-0.14844 -0.35547,-0.30469 -0.53516,-0.45703c-0.02344,-0.02344 -0.04297,-0.03906 -0.07031,-0.05859c-0.19922,-0.18359 -0.40234,-0.36719 -0.64453,-0.59766l-0.70703,-0.70312c-0.17187,-0.17578 -0.34375,-0.35547 -0.53906,-0.57031c-0.17969,-0.19922 -0.35156,-0.39844 -0.58203,-0.67187l-0.42187,-0.51562c-0.05078,-0.07422 -0.10547,-0.14844 -0.17187,-0.22656c-0.14453,-0.19531 -0.28906,-0.38672 -0.43359,-0.58984c-3.89062,-5.35937 -4.90625,-16.54687 -1.875,-20.64453c0.30469,-0.41016 0.25,-0.98828 -0.13281,-1.33594c-0.1875,-0.17187 -0.42969,-0.25781 -0.66797,-0.25781z"></path></g></g></svg>
